X:177
T:Oh!Balmy breeze that fans the Seas. CJF.177
T:Balmy breeze that fans the Seas,Oh!. CJF.177
R:air
S:C.J.Fox MS, 1829/33, Beverley,E.Yorks.
B:Kidson Coll.Mitchell Lib.M1805
O:England
A:East Yorkshire
Z:vmp.P J Headford 2000 & 2008
M:6/8
L:1/8
Q:3/8=60
K:Bb
” Andante”F|B2d (def)|ecA FGE|DFB BAB|d2c c3|\
ecA fed|dBb gec|B2B {B/}AGA|B3- B2″$”|!
|:”p”F|”Song”B2d d2f|e2c c2A|B2d e>fg|(d3 c)zF|\
e2d cde|fdb gec|B2B (c<fA)|B3- B2:|!
|:(A/B/)|c2c f=ed|dcc c2A|B2c (dc)B|(B3 A2)(A/B/)|\
c2c f=ed|c2b b2g|{f/}=edc cde|Hf3 z2F|!
B2d d2f|e2c c2A|B2d e>fg|(d3c)zF|\
e2d cde|(fd).b (ge)c|B2B (c<f)c|B3- B2:||!
“Sym:”d|ecA fec|(dB).b (ge).c|B2B {B/}AGA|B3- B2|]

